ox-hugo/cdn8lr.svg

<?xml version="1.0" encoding="UTF-8" standalone="no"?>
<svg
   width="212.86378pt"
   height="213.95741pt"
   viewBox="0 0 212.86378 213.95741"
   version="1.1"
   id="svg43"
   xmlns:xlink="http://www.w3.org/1999/xlink"
   xmlns="http://www.w3.org/2000/svg"
   xmlns:svg="http://www.w3.org/2000/svg">
  <defs
     id="defs17">
    <g
       id="g9">
      <g
         id="glyph-0-0" />
      <g
         id="glyph-0-1">
        <path
           d="M 3.328125,-3.015625 C 3.390625,-3.265625 3.625,-4.1875 4.3125,-4.1875 c 0.046875,0 0.296875,0 0.5,0.125 C 4.53125,-4 4.34375,-3.765625 4.34375,-3.515625 c 0,0.15625 0.109375,0.34375 0.375,0.34375 0.21875,0 0.53125,-0.171875 0.53125,-0.578125 0,-0.515625 -0.578125,-0.65625 -0.921875,-0.65625 -0.578125,0 -0.921875,0.53125 -1.046875,0.75 -0.25,-0.65625 -0.78125,-0.75 -1.078125,-0.75 -1.03125,0 -1.609375,1.28125 -1.609375,1.53125 0,0.109375 0.109375,0.109375 0.125,0.109375 0.078125,0 0.109375,-0.03125 0.125,-0.109375 0.34375,-1.0625 1,-1.3125 1.34375,-1.3125 0.1875,0 0.53125,0.09375 0.53125,0.671875 0,0.3125 -0.171875,0.96875 -0.53125,2.375 -0.15625,0.609375 -0.515625,1.03125 -0.953125,1.03125 -0.0625,0 -0.28125,0 -0.5,-0.125 0.25,-0.0625 0.46875,-0.265625 0.46875,-0.546875 0,-0.265625 -0.21875,-0.34375 -0.359375,-0.34375 -0.3125,0 -0.546875,0.25 -0.546875,0.578125 0,0.453125 0.484375,0.65625 0.921875,0.65625 0.671875,0 1.03125,-0.703125 1.046875,-0.75 0.125,0.359375 0.484375,0.75 1.078125,0.75 1.03125,0 1.59375,-1.28125 1.59375,-1.53125 0,-0.109375 -0.078125,-0.109375 -0.109375,-0.109375 -0.09375,0 -0.109375,0.046875 -0.140625,0.109375 -0.328125,1.078125 -1,1.3125 -1.3125,1.3125 -0.390625,0 -0.546875,-0.3125 -0.546875,-0.65625 0,-0.21875 0.046875,-0.4375 0.15625,-0.875 z m 0,0"
           id="path3" />
      </g>
      <g
         id="glyph-0-2">
        <path
           d="m 4.84375,-3.796875 c 0.046875,-0.140625 0.046875,-0.15625 0.046875,-0.234375 0,-0.171875 -0.140625,-0.265625 -0.296875,-0.265625 -0.09375,0 -0.25,0.0625 -0.34375,0.203125 -0.015625,0.0625 -0.109375,0.359375 -0.140625,0.546875 -0.078125,0.25 -0.140625,0.53125 -0.203125,0.796875 l -0.453125,1.796875 c -0.03125,0.140625 -0.46875,0.84375 -1.125,0.84375 -0.5,0 -0.609375,-0.4375 -0.609375,-0.8125 C 1.71875,-1.375 1.890625,-2 2.21875,-2.875 2.375,-3.28125 2.421875,-3.390625 2.421875,-3.59375 c 0,-0.4375 -0.3125,-0.8125 -0.8125,-0.8125 -0.953125,0 -1.3125,1.453125 -1.3125,1.53125 0,0.109375 0.09375,0.109375 0.109375,0.109375 0.109375,0 0.109375,-0.03125 0.15625,-0.1875 0.28125,-0.9375 0.671875,-1.234375 1.015625,-1.234375 0.078125,0 0.25,0 0.25,0.3125 0,0.25 -0.109375,0.515625 -0.171875,0.703125 -0.40625,1.0625 -0.578125,1.625 -0.578125,2.09375 0,0.890625 0.625,1.1875 1.21875,1.1875 0.390625,0 0.71875,-0.171875 1,-0.453125 -0.125,0.515625 -0.25,1.015625 -0.640625,1.546875 -0.265625,0.328125 -0.640625,0.625 -1.09375,0.625 -0.140625,0 -0.59375,-0.03125 -0.765625,-0.421875 0.15625,0 0.296875,0 0.421875,-0.125 C 1.328125,1.203125 1.421875,1.0625 1.421875,0.875 1.421875,0.5625 1.15625,0.53125 1.0625,0.53125 0.828125,0.53125 0.5,0.6875 0.5,1.171875 c 0,0.5 0.4375,0.875 1.0625,0.875 1.015625,0 2.046875,-0.90625 2.328125,-2.03125 z m 0,0"
           id="path6" />
      </g>
    </g>
    <clipPath
       id="clip-0">
      <path
         clip-rule="nonzero"
         d="m 85,13 h 1 v 204.35937 h -1 z m 0,0"
         id="path11" />
    </clipPath>
    <clipPath
       id="clip-1">
      <path
         clip-rule="nonzero"
         d="m 79,83 h 137.82812 v 98 H 79 Z m 0,0"
         id="path14" />
    </clipPath>
  </defs>
  <path
     fill="none"
     stroke-width="0.3985"
     stroke-linecap="butt"
     stroke-linejoin="miter"
     stroke="#000000"
     stroke-opacity="1"
     stroke-miterlimit="10"
     d="M 0,128.91834 H 203.69922"
     id="path19" />
  <path
     fill="none"
     stroke-width="0.3985"
     stroke-linecap="round"
     stroke-linejoin="round"
     stroke="#000000"
     stroke-opacity="1"
     stroke-miterlimit="10"
     d="m 201.82422,126.52772 c 0.3789,1.43359 1.22265,2.11328 2.07422,2.39062 -0.85157,0.27735 -1.69532,0.95703 -2.07422,2.39063"
     id="path21" />
  <g
     fill="#000000"
     fill-opacity="1"
     id="g25"
     transform="translate(-0.199219,-3.2027502)">
    <use
       xlink:href="#glyph-0-1"
       x="207.813"
       y="134.26601"
       id="use23" />
  </g>
  <g
     clip-path="url(#clip-0)"
     id="g29"
     transform="translate(-0.199219,-3.2027502)">
    <path
       fill="none"
       stroke-width="0.3985"
       stroke-linecap="butt"
       stroke-linejoin="miter"
       stroke="#000000"
       stroke-opacity="1"
       stroke-miterlimit="10"
       d="M -7.1875e-4,-85.039156 V 118.65616"
       transform="matrix(1,0,0,-1,85.239,132.121)"
       id="path27" />
  </g>
  <path
     fill="none"
     stroke-width="0.3985"
     stroke-linecap="round"
     stroke-linejoin="round"
     stroke="#000000"
     stroke-opacity="1"
     stroke-miterlimit="10"
     d="m 82.648437,12.133187 c 1.433594,-0.378906 2.113281,-1.222656 2.390625,-2.070312 0.28125,0.847656 0.957031,1.691406 2.390625,2.070312"
     id="path31" />
  <g
     fill="#000000"
     fill-opacity="1"
     id="g35"
     transform="translate(-0.199219,-3.2027502)">
    <use
       xlink:href="#glyph-0-2"
       x="82.617996"
       y="7.6090002"
       id="use33" />
  </g>
  <path
     fill="none"
     stroke-width="0.3985"
     stroke-linecap="butt"
     stroke-linejoin="miter"
     stroke="#0000ff"
     stroke-opacity="1"
     stroke-miterlimit="10"
     d="m 42.519531,1.3558398 c 0,0 2.558594,14.9687502 3.542969,20.3750002 0.984375,5.41016 2.558593,13.687504 3.542968,18.605472 0.984375,4.914063 2.5625,12.40625 3.542969,16.828125 0.984375,4.425782 2.5625,11.128907 3.542969,15.058594 0.984375,3.933594 2.5625,9.847656 3.546875,13.289063 0.980469,3.441406 2.558594,8.566406 3.542969,11.515625 0.980468,2.949218 2.558593,7.285151 3.542968,9.746091 0.980469,2.45703 2.558594,6.00391 3.542969,7.97266 0.984375,1.96484 2.558594,4.72265 3.542969,6.19922 0.984375,1.47656 2.558594,3.44531 3.542969,4.42968 0.984375,0.98438 2.558593,2.16407 3.542968,2.65625 0.984375,0.49219 2.558594,0.88672 3.542969,0.88672 0.984375,0 2.5625,-0.39453 3.542969,-0.88672 0.984375,-0.49218 2.5625,-1.67187 3.542969,-2.65625 0.984375,-0.98437 2.5625,-2.95312 3.542968,-4.42968 0.984375,-1.47657 2.5625,-4.23438 3.546875,-6.19922 0.980467,-1.96875 2.558597,-5.51563 3.542967,-7.97266 0.98047,-2.46094 2.5586,-6.796873 3.54297,-9.746091 0.98047,-2.949219 2.5586,-8.074219 3.54297,-11.515625 0.98438,-3.441407 2.55859,-9.355469 3.54297,-13.289063 0.98437,-3.929687 2.55859,-10.632812 3.54297,-15.058594 0.98437,-4.421875 2.55859,-11.914062 3.54297,-16.828125 0.98437,-4.917968 2.5625,-13.195312 3.54297,-18.605472 C 125,16.32459 127.55859,1.3558398 127.55859,1.3558398"
     id="path37" />
  <g
     clip-path="url(#clip-1)"
     id="g41"
     transform="translate(-0.199219,-3.2027502)">
    <path
       fill="none"
       stroke-width="0.3985"
       stroke-linecap="butt"
       stroke-linejoin="miter"
       stroke="#ff0000"
       stroke-opacity="1"
       stroke-miterlimit="10"
       d="m 127.56178,-42.519625 c 0,0 -14.96875,2.558594 -20.375,3.542969 -5.41016,0.984375 -13.687499,2.558594 -18.601561,3.542969 -4.917969,0.984375 -12.40625,2.558593 -16.832032,3.542968 -4.425781,0.984375 -11.125,2.5625 -15.058593,3.542969 -3.933594,0.984375 -9.847657,2.5625 -13.289063,3.542969 -3.441406,0.984375 -8.566406,2.5625 -11.515625,3.542969 -2.949219,0.984375 -7.285156,2.5625 -9.742187,3.546875 -2.460938,0.980468 -6.007813,2.558593 -7.972657,3.542968 C 12.206312,-13.1915 9.4485,-11.613375 7.971937,-10.629 6.499281,-9.648531 4.526625,-8.070406 3.54225,-7.086031 2.561781,-6.101656 1.378187,-4.527437 0.886,-3.543062 0.393812,-2.558687 -7.1875e-4,-0.984469 -7.1875e-4,-9.375e-5 -7.1875e-4,0.984281 0.393812,2.5585 0.886,3.542875 1.378187,4.52725 2.561781,6.101469 3.54225,7.085844 c 0.984375,0.984375 2.957031,2.5625 4.429687,3.542969 1.476563,0.984375 4.234375,2.5625 6.203125,3.542968 1.964844,0.984375 5.511719,2.5625 7.972657,3.546875 2.457031,0.980469 6.792968,2.558594 9.742187,3.542969 2.949219,0.980469 8.074219,2.558594 11.515625,3.542969 3.441406,0.980469 9.355469,2.558594 13.289063,3.542969 3.933593,0.984375 10.632812,2.558593 15.058593,3.542968 4.425782,0.984375 11.914063,2.558594 16.832032,3.542969 4.914062,0.984375 13.191401,2.558594 18.601561,3.542969 5.40625,0.984375 20.375,3.542969 20.375,3.542969"
       transform="matrix(1,0,0,-1,85.239,132.121)"
       id="path39" />
  </g>
</svg>

<?xml version="1.0" encoding="UTF-8" standalone="no"?>
<svg
   width="216.828pt"
   height="217.36pt"
   viewBox="0 0 216.828 217.36"
   version="1.1"
   id="svg43"
   xmlns:xlink="http://www.w3.org/1999/xlink"
   xmlns="http://www.w3.org/2000/svg"
   xmlns:svg="http://www.w3.org/2000/svg">
  <defs
     id="defs17">
    <g
       id="g9">
      <g
         id="glyph-0-0" />
      <g
         id="glyph-0-1">
        <path
           d="M 4.9375 -1.421875 C 4.9375 -1.53125 4.859375 -1.53125 4.828125 -1.53125 C 4.734375 -1.53125 4.71875 -1.484375 4.6875 -1.421875 C 4.359375 -0.34375 3.6875 -0.109375 3.375 -0.109375 C 2.984375 -0.109375 2.828125 -0.421875 2.828125 -0.765625 C 2.828125 -0.984375 2.875 -1.203125 2.984375 -1.640625 L 3.328125 -3.015625 C 3.390625 -3.265625 3.625 -4.1875 4.3125 -4.1875 C 4.359375 -4.1875 4.609375 -4.1875 4.8125 -4.0625 C 4.53125 -4 4.34375 -3.765625 4.34375 -3.515625 C 4.34375 -3.359375 4.453125 -3.171875 4.71875 -3.171875 C 4.9375 -3.171875 5.25 -3.34375 5.25 -3.75 C 5.25 -4.265625 4.671875 -4.40625 4.328125 -4.40625 C 3.75 -4.40625 3.40625 -3.875 3.28125 -3.65625 C 3.03125 -4.3125 2.5 -4.40625 2.203125 -4.40625 C 1.171875 -4.40625 0.59375 -3.125 0.59375 -2.875 C 0.59375 -2.765625 0.71875 -2.765625 0.71875 -2.765625 C 0.796875 -2.765625 0.828125 -2.796875 0.84375 -2.875 C 1.1875 -3.9375 1.84375 -4.1875 2.1875 -4.1875 C 2.375 -4.1875 2.71875 -4.09375 2.71875 -3.515625 C 2.71875 -3.203125 2.546875 -2.546875 2.1875 -1.140625 C 2.03125 -0.53125 1.671875 -0.109375 1.234375 -0.109375 C 1.171875 -0.109375 0.953125 -0.109375 0.734375 -0.234375 C 0.984375 -0.296875 1.203125 -0.5 1.203125 -0.78125 C 1.203125 -1.046875 0.984375 -1.125 0.84375 -1.125 C 0.53125 -1.125 0.296875 -0.875 0.296875 -0.546875 C 0.296875 -0.09375 0.78125 0.109375 1.21875 0.109375 C 1.890625 0.109375 2.25 -0.59375 2.265625 -0.640625 C 2.390625 -0.28125 2.75 0.109375 3.34375 0.109375 C 4.375 0.109375 4.9375 -1.171875 4.9375 -1.421875 Z M 4.9375 -1.421875 "
           id="path3" />
      </g>
      <g
         id="glyph-0-2">
        <path
           d="M 4.84375 -3.796875 C 4.890625 -3.9375 4.890625 -3.953125 4.890625 -4.03125 C 4.890625 -4.203125 4.75 -4.296875 4.59375 -4.296875 C 4.5 -4.296875 4.34375 -4.234375 4.25 -4.09375 C 4.234375 -4.03125 4.140625 -3.734375 4.109375 -3.546875 L 3.90625 -2.75 L 3.453125 -0.953125 C 3.421875 -0.8125 2.984375 -0.109375 2.328125 -0.109375 C 1.828125 -0.109375 1.71875 -0.546875 1.71875 -0.921875 C 1.71875 -1.375 1.890625 -2 2.21875 -2.875 C 2.375 -3.28125 2.421875 -3.390625 2.421875 -3.59375 C 2.421875 -4.03125 2.109375 -4.40625 1.609375 -4.40625 C 0.65625 -4.40625 0.296875 -2.953125 0.296875 -2.875 C 0.296875 -2.765625 0.40625 -2.765625 0.40625 -2.765625 C 0.515625 -2.765625 0.515625 -2.796875 0.5625 -2.953125 C 0.84375 -3.890625 1.234375 -4.1875 1.578125 -4.1875 C 1.65625 -4.1875 1.828125 -4.1875 1.828125 -3.875 C 1.828125 -3.625 1.71875 -3.359375 1.65625 -3.171875 C 1.25 -2.109375 1.078125 -1.546875 1.078125 -1.078125 C 1.078125 -0.1875 1.703125 0.109375 2.296875 0.109375 C 2.6875 0.109375 3.015625 -0.0625 3.296875 -0.34375 C 3.171875 0.171875 3.046875 0.671875 2.65625 1.203125 C 2.390625 1.53125 2.015625 1.828125 1.5625 1.828125 C 1.421875 1.828125 0.96875 1.796875 0.796875 1.40625 C 0.953125 1.40625 1.09375 1.40625 1.21875 1.28125 C 1.328125 1.203125 1.421875 1.0625 1.421875 0.875 C 1.421875 0.5625 1.15625 0.53125 1.0625 0.53125 C 0.828125 0.53125 0.5 0.6875 0.5 1.171875 C 0.5 1.671875 0.9375 2.046875 1.5625 2.046875 C 2.578125 2.046875 3.609375 1.140625 3.890625 0.015625 Z M 4.84375 -3.796875 "
           id="path6" />
      </g>
    </g>
    <clipPath
       id="clip-0">
      <path
         clip-rule="nonzero"
         d="M 85 13 L 86 13 L 86 217.359375 L 85 217.359375 Z M 85 13 "
         id="path11" />
    </clipPath>
    <clipPath
       id="clip-1">
      <path
         clip-rule="nonzero"
         d="M 79 83 L 216.828125 83 L 216.828125 181 L 79 181 Z M 79 83 "
         id="path14" />
    </clipPath>
  </defs>
  <path
     fill="none"
     stroke-width="0.3985"
     stroke-linecap="butt"
     stroke-linejoin="miter"
     stroke="rgb(0%, 0%, 0%)"
     stroke-opacity="1"
     stroke-miterlimit="10"
     d="M -85.039781 -0.00009375 L 118.596937 -0.00009375 "
     transform="matrix(1, 0, 0, -1, 85.239, 132.121)"
     id="path19" />
  <path
     fill="none"
     stroke-width="0.31879"
     stroke-linecap="round"
     stroke-linejoin="round"
     stroke="rgb(0%, 0%, 0%)"
     stroke-opacity="1"
     stroke-miterlimit="10"
     d="M -1.196595 1.593656 C -1.095033 0.996 -0.0012825 0.101469 0.299499 -0.00009375 C -0.0012825 -0.09775 -1.095033 -0.996187 -1.196595 -1.593844 "
     transform="matrix(1, 0, 0, -1, 203.83722, 132.121)"
     id="path21" />
  <g
     fill="#000000"
     fill-opacity="1"
     id="g25">
    <use
       xlink:href="#glyph-0-1"
       x="207.813"
       y="134.26601"
       id="use23" />
  </g>
  <g
     clip-path="url(#clip-0)"
     id="g29">
    <path
       fill="none"
       stroke-width="0.3985"
       stroke-linecap="butt"
       stroke-linejoin="miter"
       stroke="#000000"
       stroke-opacity="1"
       stroke-miterlimit="10"
       d="M -7.1875e-4,-85.039156 V 118.59756"
       transform="matrix(1,0,0,-1,85.239,132.121)"
       id="path27" />
  </g>
  <path
     fill="none"
     stroke-width="0.31879"
     stroke-linecap="round"
     stroke-linejoin="round"
     stroke="rgb(0%, 0%, 0%)"
     stroke-opacity="1"
     stroke-miterlimit="10"
     d="M -1.19597 1.594469 C -1.094408 0.996813 -0.0006575 0.098375 0.300124 0.00071875 C -0.0006575 -0.100844 -1.094408 -0.995375 -1.19597 -1.593031 "
     transform="matrix(0, -1, -1, 0, 85.239, 13.52278)"
     id="path31" />
  <g
     fill="#000000"
     fill-opacity="1"
     id="g35">
    <use
       xlink:href="#glyph-0-2"
       x="82.617996"
       y="7.6090002"
       id="use33" />
  </g>
  <path
     fill="none"
     stroke-width="0.3985"
     stroke-linecap="butt"
     stroke-linejoin="miter"
     stroke="rgb(0%, 0%, 100%)"
     stroke-opacity="1"
     stroke-miterlimit="10"
     d="M -42.52025 127.562406 C -42.52025 127.562406 -39.961656 112.593656 -38.977281 107.187406 C -37.992906 101.77725 -36.418688 93.499906 -35.434313 88.581938 C -34.449938 83.667875 -32.871813 76.175688 -31.891344 71.753813 C -30.906969 67.328031 -29.328844 60.624906 -28.348375 56.695219 C -27.364 52.761625 -25.785875 46.847563 -24.8015 43.406156 C -23.821031 39.96475 -22.242906 34.83975 -21.258531 31.890531 C -20.278063 28.941313 -18.699938 24.605375 -17.715563 22.144438 C -16.735094 19.687406 -15.156969 16.140531 -14.172594 14.171781 C -13.188219 12.206938 -11.614 9.449125 -10.629625 7.972563 C -9.64525 6.496 -8.071031 4.52725 -7.086656 3.542875 C -6.102281 2.5585 -4.528063 1.378813 -3.543688 0.886625 C -2.559313 0.394438 -0.985094 -0.00009375 -0.00071875 -0.00009375 C 0.983656 -0.00009375 2.561781 0.394438 3.54225 0.886625 C 4.526625 1.378813 6.10475 2.5585 7.085219 3.542875 C 8.069594 4.52725 9.647719 6.496 10.628187 7.972563 C 11.612562 9.449125 13.190687 12.206938 14.175062 14.171781 C 15.155531 16.140531 16.733656 19.687406 17.718031 22.144438 C 18.6985 24.605375 20.276625 28.941313 21.261 31.890531 C 22.241469 34.83975 23.819594 39.96475 24.803969 43.406156 C 25.788344 46.847563 27.362562 52.761625 28.346937 56.695219 C 29.331312 60.624906 30.905531 67.328031 31.889906 71.753813 C 32.874281 76.175688 34.4485 83.667875 35.432875 88.581938 C 36.41725 93.499906 37.995375 101.77725 38.975844 107.187406 C 39.960219 112.593656 42.518812 127.562406 42.518812 127.562406 "
     transform="matrix(1, 0, 0, -1, 85.239, 132.121)"
     id="path37" />
  <g
     clip-path="url(#clip-1)"
     id="g41">
    <path
       fill="none"
       stroke-width="0.3985"
       stroke-linecap="butt"
       stroke-linejoin="miter"
       stroke="#ff0000"
       stroke-opacity="1"
       stroke-miterlimit="10"
       d="m 127.56178,-42.519625 c 0,0 -14.96875,2.558594 -20.375,3.542969 -5.41016,0.984375 -13.687499,2.558594 -18.601561,3.542969 -4.917969,0.984375 -12.40625,2.558593 -16.832032,3.542968 -4.425781,0.984375 -11.125,2.5625 -15.058593,3.542969 -3.933594,0.984375 -9.847657,2.5625 -13.289063,3.542969 -3.441406,0.984375 -8.566406,2.5625 -11.515625,3.542969 -2.949219,0.984375 -7.285156,2.5625 -9.742187,3.546875 -2.460938,0.980468 -6.007813,2.558593 -7.972657,3.542968 C 12.206312,-13.1915 9.4485,-11.613375 7.971937,-10.629 6.499281,-9.648531 4.526625,-8.070406 3.54225,-7.086031 2.561781,-6.101656 1.378187,-4.527437 0.886,-3.543062 0.393812,-2.558687 -7.1875e-4,-0.984469 -7.1875e-4,-9.375e-5 -7.1875e-4,0.984281 0.393812,2.5585 0.886,3.542875 1.378187,4.52725 2.561781,6.101469 3.54225,7.085844 c 0.984375,0.984375 2.957031,2.5625 4.429687,3.542969 1.476563,0.984375 4.234375,2.5625 6.203125,3.542968 1.964844,0.984375 5.511719,2.5625 7.972657,3.546875 2.457031,0.980469 6.792968,2.558594 9.742187,3.542969 2.949219,0.980469 8.074219,2.558594 11.515625,3.542969 3.441406,0.980469 9.355469,2.558594 13.289063,3.542969 3.933593,0.984375 10.632812,2.558593 15.058593,3.542968 4.425782,0.984375 11.914063,2.558594 16.832032,3.542969 4.914062,0.984375 13.191401,2.558594 18.601561,3.542969 5.40625,0.984375 20.375,3.542969 20.375,3.542969"
       transform="matrix(1,0,0,-1,85.239,132.121)"
       id="path39" />
  </g>
</svg>
